!!!COM: Palestrina, Giovanni Perluigi da
!!!OPR: Missa O Rex gloriae
!!!OTL: Agnus
**kern	**kern	**kern	**kern	**kern
*Ibass	*Itenor	*Itenor	*Icalto	*Icant
!Bassus	!Tenor 2	!Tenor 1	!Altus	!Cantus
*clefF4	*clefGv2	*clefGv2	*clefG2	*clefG2
*k[b-]	*k[b-]	*k[b-]	*k[b-]	*k[b-]
*G:dor	*G:dor	*G:dor	*G:dor	*G:dor
*M4/2	*M4/2	*M4/2	*M4/2	*M4/2
=1	=1	=1	=1	=1
0r	0r	0r	0g	1r
.	.	.	.	[1dd
=2	=2	=2	=2	=2
0r	0r	0r	1d	1dd]
.	.	.	1f	1a
=3	=3	=3	=3	=3
1r	0r	0r	1e	1.cc
[1G	.	.	1d	.
.	.	.	.	4b-
.	.	.	.	4a
=4	=4	=4	=4	=4
1G]	0r	0d	1g	1b-
1D	.	.	[1f	2.a
.	.	.	.	4g
=5	=5	=5	=5	=5
1F	0r	1A	2f]	4a
.	.	.	.	4b-
.	.	.	2.a	2.cc
1E	.	1c	.	.
.	.	.	4g	4b-
.	.	.	[2g	4g
.	.	.	.	4a
=6	=6	=6	=6	=6
1D	0r	1B-	4g]	4b-
.	.	.	4f	4cc
.	.	.	4f	1dd
.	.	.	8e	.
.	.	.	8d	.
1r	.	1A	2e	.
.	.	.	2a	2cc#
=7	=7	=7	=7	=7
2r	0d	2.B-	2f	2dd
1G	.	.	1b-	1gg
.	.	4c	.	.
.	.	4d	.	.
.	.	4e	.	.
2D	.	[2f	4a	2ff
.	.	.	4g	.
=8	=8	=8	=8	=8
1F	1A	4f]	1a	1ff
.	.	4e	.	.
.	.	4c	.	.
.	.	4d	.	.
1C	1c	4e	1g	1ee
.	.	4f	.	.
.	.	[2g	.	.
=9	=9	=9	=9	=9
0D	1B-	2g]	1r	1dd
.	.	4f#	.	.
.	.	4e	.	.
.	1A	1f#	1d	1r
=10	=10	=10	=10	=10
1.G	2.B-	1g	2d	0dd
.	.	.	4G	.
.	4c	.	4A	.
.	4d	1r	4B-	.
.	4e	.	4c	.
2D	[2f	.	2d	.
=11	=11	=11	=11	=11
1F	4f]	0r	2c	1a
.	4e	.	.	.
.	4c	.	2f	.
.	4d	.	.	.
1C	4e	.	2g	1cc
.	4f	.	.	.
.	[2g	.	2e	.
=12	=12	=12	=12	=12
0D	2g]	0r	0d	2b-
.	4f#	.	.	4a
.	4e	.	.	4g
.	1f#	.	.	2a
.	.	.	.	2a
=13	=13	=13	=13	=13
1G	1g	2r	2r	1b-
.	.	2G	2d	.
1r	1r	1d	1f	2b-
.	.	.	.	2a
=14	=14	=14	=14	=14
0r	0r	2d	2f	2b-
.	.	2c	2e	2.a
.	.	1d	2f	.
.	.	.	.	4g
.	.	.	[2a	4f
.	.	.	.	4e
=15	=15	=15	=15	=15
1r	0r	1B-	2a]	2d
.	.	.	1g	2.dd
1D	.	1A	.	.
.	.	.	.	4cc
.	.	.	2f#	2a
=16	=16	=16	=16	=16
1G	2r	2G	1g	2.b-
.	2G	1B-	.	.
.	.	.	.	4a
2G	1d	.	1r	2g
2F	.	2A	.	2a
=17	=17	=17	=17	=17
2G	2d	2B-	1r	1g
2E	2c#	2G	.	.
4D	1d	1A	2r	2f
4E	.	.	.	.
4F	.	.	[2d	2a
8E	.	.	.	.
8F	.	.	.	.
=18	=18	=18	=18	=18
1G	1B-	1r	2d]	1g
.	.	.	1g	.
1D	1A	1d	.	2r
.	.	.	2f	2a
=19	=19	=19	=19	=19
0r	2G	2.d	2g	1dd
.	1B-	.	2f	.
.	.	4e	.	.
.	.	4f	2d	2dd
.	.	4g	.	.
.	2A	4a	[2e	2cc
.	.	4g	.	.
=20	=20	=20	=20	=20
1r	2B-	2f	4e]	2dd
.	.	.	4d	.
.	2G	2g	1d	2b-
2r	1A	1e	.	1a
2A	.	.	2c#	.
=21	=21	=21	=21	=21
1d	1r	1d	2d	2a
.	.	.	1f	2a
2D	1d	1r	.	2dd
4G	.	.	2g	4b-
4A	.	.	.	4cc
=22	=22	=22	=22	=22
4B-	2.d	0r	2.f	4dd
4c	.	.	.	4ee
1d	.	.	.	1ff
.	4e	.	4g	.
.	4f	.	4a	.
.	4g	.	4b-	.
2A	4a	.	2cc	[2ee
.	4g	.	.	.
=23	=23	=23	=23	=23
2B-	2f	0r	1b-	4ee]
.	.	.	.	4dd
2G	2g	.	.	1dd
1A	1e	.	1a	.
.	.	.	.	2cc#
=24	=24	=24	=24	=24
1D	1d	1r	1a	1dd
1r	1r	1d	1f	1ff
=25	=25	=25	=25	=25
1r	0r	2B-	1g	2dd
.	.	2c	.	2ee
2r	.	1d	2f	2ff
2d	.	.	[2a	[2dd
=26	=26	=26	=26	=26
2B-	0r	1r	4a]	2dd]
.	.	.	4g	.
2c	.	.	1g	4cc
.	.	.	.	4b-
2.d	.	2r	.	1a
.	.	[2d	2f#	.
4c	.	.	.	.
=27	=27	=27	=27	=27
4B-	1r	4d]	1g	2.dd
4A	.	4c	.	.
2.G	.	4B-	.	.
.	.	4A	.	4cc
.	1d	2G	1r	2b-
4F	.	.	.	.
2D	.	2F	.	2a
=28	=28	=28	=28	=28
1E-	2B-	1G	2r	1g
.	2c	.	2g	.
2D	1d	1A	2g	2r
2D	.	.	2f	2dd
=29	=29	=29	=29	=29
2G	1r	0r	2g	2b-
2A	.	.	2e-	2cc
2.B-	2r	.	2d	2.dd
.	[2d	.	2f	.
4A	.	.	.	4cc
=30	=30	=30	=30	=30
1G	4d]	1d	2g	4b-
.	4c	.	.	4a
.	4B-	.	1b-	4g
.	4A	.	.	4f
1r	2G	2e	.	2g
.	2F	2f	2a	2a
=31	=31	=31	=31	=31
1r	1G	2e	2.g	1b-
.	.	1d	.	.
.	.	.	4f	.
2r	1A	.	2e	1a
2A	.	2c#	[2a	.
=32	=32	=32	=32	=32
2F	0r	1d	2a]	2r
2G	.	.	4g	1dd
.	.	.	4f	.
1A	.	1r	2e	.
.	.	.	2a	2cc
=33	=33	=33	=33	=33
1B-	1d	0r	2f	1dd
.	.	.	2g	.
2.A	2e	.	2a	2cc
.	2f	.	[2cc	2a
4B-	.	.	.	.
=34	=34	=34	=34	=34
2c	2e	2r	4cc]	1g
.	.	.	4g	.
2G	1d	2g	2b-	.
1A	.	2e	1a	1r
.	2c#	2f	.	.
=35	=35	=35	=35	=35
1G	1d	2.g	2.b-	1r
.	.	4f	4a	.
1C	1r	4e	4g	1cc
.	.	4d	4f	.
.	.	[2c	4e	.
.	.	.	4d	.
=36	=36	=36	=36	=36
1r	0r	4c]	4e	2a
.	.	4B-	4f	.
.	.	2G	1g	2b-
2r	.	1A	.	2.cc
[2c	.	.	2f	.
.	.	.	.	4dd
=37	=37	=37	=37	=37
2c]	2r	1G	1.g	2ee-
2B	2g	.	.	2dd
2c	2e	1r	.	2g
2A	2f	.	2c	[2cc
=38	=38	=38	=38	=38
1G	2.g	2r	1d	2cc]
.	.	1G	.	2b-
.	4f	.	.	.
2C	4e	.	2g	4cc
.	4d	.	.	4b-
[2F	[2c	2A	2f	4a
.	.	.	.	4g
=39	=39	=39	=39	=39
2F]	4c]	2c	2a	2f
.	4B-	.	.	.
2E	2G	2c	1g	2g
1D	1A	1d	.	1dd
.	.	.	2f#	.
=40	=40	=40	=40	=40
0G	0G	0d	0g	0b
==	==	==	==	==
*-	*-	*-	*-	*-
!!!CDT: 1525/^1526/-1594/2/2
!!!OCY: Italia
!!!AGN: Mass (Parody)
!!!AST: renaissance, vocal
!!!ASW: Motet 1563 (Palestrina)
!!!PWK: Masses, Book 12
!!!RNB: Cadence finals: D
!!!YOR: Le Opere Complete, v. 29, p. 30
!!!YOO: Rome, Italy: Fratelli Scalera
!!!END: 1992//
!!!EED: John Miller
!!!YEC: Copyright 2000, John Miller
!!!YEN: United States of America
!!!YEM: Rights to all derivative electronic formats reserved.
!!!YEM: Refer to licensing agreement for further details.
!!!YEM: This file must be accompanied by the licensing agreement.
!!!YEM: A copy of the licensing agreement may be found at http://www.music-cog.ohio-state.edu/HumdrumDatabases/Palestrina/license.txt
!!!EMD: converted to Humdrum by Bret Aarden
